frontend/public/Images/Business/p5_arrow.svg

<svg width="20" height="20" viewBox="0 0 20 20" fill="none" xmlns="http://www.w3.org/2000/svg">
<path d="M8.77698 1.02064L0.999152 9.03521C0.333616 9.721 0.333616 10.8269 0.999152 11.5127C1.67284 12.2068 2.7715 12.2068 3.44518 11.5127L8.27783 6.53291L8.27783 17.7778C8.27783 18.729 9.04887 19.5 10 19.5C10.9511 19.5 11.7222 18.729 11.7222 17.7778L11.7222 6.53291L16.5548 11.5127C17.2285 12.2068 18.3272 12.2068 19.0008 11.5127C19.6664 10.8269 19.6664 9.721 19.0009 9.03521L11.223 1.02064C10.5493 0.326452 9.45067 0.326452 8.77698 1.02064Z" fill="white" stroke="white" stroke-linejoin="round"/>
</svg>

<svg width="20" height="20" fill="none" xmlns="http://www.w3.org/2000/svg"><path d="M8.777 1.02L.999 9.036a1.787 1.787 0 000 2.478 1.697 1.697 0 002.446 0l4.833-4.98v11.245a1.722 1.722 0 103.444 0V6.533l4.833 4.98a1.697 1.697 0 002.446 0 1.787 1.787 0 000-2.478l-7.778-8.014a1.697 1.697 0 00-2.446 0z" fill="#fff" stroke="#fff" stroke-linejoin="round"/></svg>
